X:1
T:The Twa Sisters
M:3/4
L:1/8
K:C
 C| E3/2 E/2 E3/2 E/2 E3.99999962500005/5.99999925000009 D3.99999962500005/5.99999925000009 C3.99999962500005/5.99999925000009|\
 E4 D3/2 C/2| E4 D3/2 C/2| A,4 z C| E3/2 E/2 E3/2 E/2 E3.99999962500005/5.99999925000009 D3.99999962500005/5.99999925000009 C3.99999962500005/5.99999925000009|\
 E4(3C3.99999962500005/5.99999925000009C3.99999962500005/5.99999925000009D3.99999962500005/5.99999925000009C3.99999962500005/5.99999925000009D3.99999962500005/5.99999925000009E3.99999962500005/5.99999925000009|\
 G4 A2| G4 z C| F3/2 F/2 F3/2 F/2 F3.99999962500005/5.99999925000009 G3.99999962500005/5.99999925000009 A3.99999962500005/5.99999925000009|\
 A2 z AA A| c3 AG E|(2E3.99999962500005/5.99999925000009E3.99999962500005/5.99999925000009D3.99999962500005/5.99999925000009 C3.99999962500005/5.99999925000009 z2(2C3.99999962500005/5.99999925000009C3.99999962500005/5.99999925000009D3.99999962500005/5.99999925000009 E3.99999962500005/5.99999925000009|\
 G2 e2 d2|
M:4/4
d-c-G-E D3- C|
M:3/4
 C4 z2|
